assets/googletv/original.svg

<svg viewBox="0 0 24 24" xmlns="http://www.w3.org/2000/svg" fill="#4285F4"><path d="m3.11 3.245a3.117 3.117 0 0 0 -3.11 3.11v7.345a1.87 1.87 0 0 0 1.878 1.878h2.588v-10.454c0-.73.313-1.399.814-1.879zm3.944 0a1.87 1.87 0 0 0 -1.879 1.879v2.586h16.947v.021c.73 0 1.398.313 1.878.814v-2.19a3.117 3.117 0 0 0 -3.11-3.11zm12.48 5.176v10.455c0 .73-.313 1.399-.814 1.879h2.17a3.117 3.117 0 0 0 3.11-3.11v-7.345a1.87 1.87 0 0 0 -1.878-1.878zm-19.534 7.054v2.17a3.117 3.117 0 0 0 3.11 3.11h13.836a1.87 1.87 0 0 0 1.878-1.879v-2.586h-16.946c-.73 0-1.398-.314-1.878-.814"/></svg>

<svg xmlns="http://www.w3.org/2000/svg" fill="#4285f4" viewBox="0 0 24 24"><path d="M3.11 3.245A3.117 3.117 0 0 0 0 6.355V13.7a1.87 1.87 0 0 0 1.878 1.878h2.588V5.124c0-.73.313-1.399.814-1.879zm3.944 0a1.87 1.87 0 0 0-1.879 1.879V7.71h16.947v.021c.73 0 1.398.313 1.878.814v-2.19a3.117 3.117 0 0 0-3.11-3.11zm12.48 5.176v10.455c0 .73-.313 1.399-.814 1.879h2.17a3.117 3.117 0 0 0 3.11-3.11V10.3a1.87 1.87 0 0 0-1.878-1.878zM0 15.475v2.17a3.117 3.117 0 0 0 3.11 3.11h13.836a1.87 1.87 0 0 0 1.878-1.879V16.29H1.878c-.73 0-1.398-.314-1.878-.814"/></svg>
